icons/themes/default/duplicate.svg

<svg viewBox="0 0 16 16" fill="none" xmlns="http://www.w3.org/2000/svg">
<path id="Union" fill-rule="evenodd" clip-rule="evenodd" d="M2.06006 3.34C2.06006 2.82374 2.18879 2.52838 2.35861 2.35855C2.52844 2.18872 2.8238 2.06 3.34006 2.06H9.57006C10.0863 2.06 10.3817 2.18872 10.5515 2.35855C10.7213 2.52838 10.8501 2.82374 10.8501 3.34V9.57C10.8501 10.0863 10.7213 10.3816 10.5515 10.5514C10.3817 10.7213 10.0863 10.85 9.57006 10.85H3.34006C2.8238 10.85 2.52844 10.7213 2.35861 10.5514C2.18879 10.3816 2.06006 10.0863 2.06006 9.57V3.34ZM3.34006 1.06C2.66965 1.06 2.07501 1.22794 1.65151 1.65144C1.228 2.07495 1.06006 2.66959 1.06006 3.34V9.57C1.06006 10.2404 1.228 10.835 1.65151 11.2586C2.07501 11.6821 2.66965 11.85 3.34006 11.85H9.57006C10.2405 11.85 10.8351 11.6821 11.2586 11.2586C11.6821 10.835 11.8501 10.2404 11.8501 9.57V3.34C11.8501 2.66959 11.6821 2.07495 11.2586 1.65144C10.8351 1.22794 10.2405 1.06 9.57006 1.06H3.34006ZM14.0247 5.26693C13.9843 4.99375 13.7302 4.80501 13.457 4.84536C13.1838 4.88572 12.9951 5.13989 13.0354 5.41307L13.3323 7.42276L13.063 12.9905C12.9991 13.0105 12.9337 13.0255 12.8671 13.0353L12.867 13.0354L6.70699 13.9454L6.70668 13.9454C6.42303 13.9875 6.13347 13.9331 5.88442 13.791C5.63537 13.6488 5.44125 13.4272 5.3332 13.1616C5.22915 12.9058 4.93744 12.7828 4.68165 12.8869C4.42586 12.9909 4.30286 13.2826 4.40691 13.5384C4.59938 14.0115 4.94515 14.4063 5.38877 14.6595C5.83231 14.9126 6.34797 15.0095 6.85313 14.9346L6.85343 14.9346L13.013 14.0247L13.063 12.9905C13.063 12.9905 13.0631 12.9905 13.0631 12.9905L13.0131 14.0246C13.3103 13.9808 13.5959 13.8787 13.8535 13.7241C14.1111 13.5696 14.3357 13.3656 14.5142 13.124C14.6928 12.8823 14.8218 12.6078 14.8939 12.3161C14.9659 12.0249 14.9797 11.7224 14.9345 11.4258L14.9343 11.4244L14.0247 5.26693ZM13.0631 12.9905L13.3323 7.42299L13.9454 11.5731L13.9458 11.5756C13.9713 11.7423 13.9636 11.9124 13.9231 12.0762C13.8826 12.2399 13.8102 12.394 13.71 12.5297C13.6097 12.6654 13.4837 12.7799 13.339 12.8666C13.2521 12.9188 13.1594 12.9603 13.0631 12.9905ZM13.3323 7.42299L13.457 4.84536L13.3323 7.42276L13.3323 7.42299Z" fill="currentColor"/>
</svg>

<svg xmlns="http://www.w3.org/2000/svg" fill="none" viewBox="0 0 16 16">
  <path fill="currentColor" fill-rule="evenodd" d="M2.06 3.34c0-.516.129-.812.299-.981.17-.17.465-.299.981-.299h6.23c.516 0 .812.129.982.299.17.17.298.465.298.981v6.23c0 .516-.129.812-.298.981-.17.17-.466.299-.982.299H3.34c-.516 0-.812-.129-.981-.299-.17-.17-.299-.465-.299-.981V3.34Zm1.28-2.28c-.67 0-1.265.168-1.688.591-.424.424-.592 1.019-.592 1.689v6.23c0 .67.168 1.265.592 1.689.423.423 1.018.591 1.688.591h6.23c.67 0 1.265-.168 1.689-.591.423-.424.591-1.019.591-1.689V3.34c0-.67-.168-1.265-.591-1.689-.424-.423-1.018-.591-1.689-.591H3.34Zm10.685 4.207a.5.5 0 0 0-.99.146l.297 2.01-.269 5.568c-.064.02-.13.034-.196.044l-6.16.91a1.28 1.28 0 0 1-1.374-.783.5.5 0 1 0-.926.376 2.28 2.28 0 0 0 2.446 1.397l6.16-.91.05-1.034-.05 1.034a2.279 2.279 0 0 0 1.921-2.6l-.91-6.158Zm-.962 7.724.27-5.568.612 4.15v.003a1.28 1.28 0 0 1-.882 1.415Zm.27-5.568.124-2.578-.125 2.578Z" clip-rule="evenodd"/>
</svg>
